X:3
T:Polska efter Anders Fredrik Andersson
T:(SvL Småland 3)
R:Polska
O:Tryserum, Småland
B:Svenska Låtar Småland
S:Anders Fredrik Andersson
N:SvL: Låten är en variant till 'Nu är det jul igen'.
M:3/4
L:1/8
K:D
AB/c/ dA FA-|AB/c/ dA FA|df Ag fa|ag e/f/g/e/:|
|:Aa a/A/a/A/ a/A/a/A/|ag/a/ ba gf|Ag g/A/g/A/ g/A/g/A/|
gf/g/ ag fe|df ff ff|fe/f/ gf ec|ce g/f/e/f/ d2:|

